;FLAVOR:Marlin
;TIME:306
;Filament used: 0.20238m
;Layer height: 0.2
;MINX:204.393
;MINY:210.196
;MINZ:0.2
;MAXX:245.528
;MAXY:240.688
;MAXZ:2.2
;TARGET_MACHINE.NAME:Creality CR-10 Max
;Generated with Cura_SteamEngine 5.9.0
M140 S80
M105
M190 S80
M104 S230
M105
M109 S230
M82 ;absolute extrusion mode
M201 X500.00 Y500.00 Z100.00 E5000.00 ;Setup machine max acceleration
M203 X500.00 Y500.00 Z10.00 E50.00 ;Setup machine max feedrate
M204 P500.00 R1000.00 T500.00 ;Setup Print/Retract/Travel acceleration
M205 X8.00 Y8.00 Z0.40 E5.00 ;Setup Jerk
M220 S100 ;Reset Feedrate
M221 S100 ;Reset Flowrate

G28 ;Home
G29 ;Auto bed Level

G92 E0 ;Reset Extruder
G1 Z2.0 F3000 ;Move Z Axis up
G1 X10.1 Y20 Z0.28 F5000.0 ;Move to start position
G1 X10.1 Y200.0 Z0.28 F1500.0 E15 ;Draw the first line
G1 X10.4 Y200.0 Z0.28 F5000.0 ;Move to side a little
G1 X10.4 Y20 Z0.28 F1500.0 E30 ;Draw the second line
G92 E0 ;Reset Extruder
G1 Z2.0 F3000 ;Move Z Axis up

G92 E0
G92 E0
G1 F1500 E-6.5
;LAYER_COUNT:10
;LAYER:0
M107
G1 F300 Z0.4
G0 F6000 X225.293 Y240.688 Z0.4
;TYPE:SKIRT
G1 F300 Z0.2
G1 F1500 E0
G1 F900 X223.553 Y240.59 E0.05796
G1 X222.549 Y240.383 E0.09206
G1 X220.84 Y239.766 E0.15249
G1 X219.391 Y239 E0.20701
G1 X218.035 Y237.774 E0.26781
G1 X216.765 Y236.193 E0.33526
G1 X216.167 Y235.127 E0.37591
G1 X215.629 Y233.692 E0.42688
G1 X215.314 Y232.19 E0.47793
G1 X215.118 Y232.281 E0.48511
G1 X213.032 Y232.805 E0.55665
G1 X210.448 Y232.641 E0.64277
G1 X208.108 Y231.697 E0.72669
G1 X206.43 Y230.189 E0.80173
G1 X205.33 Y228.69 E0.86357
G1 X204.622 Y226.684 E0.93432
G1 X204.393 Y224.305 E1.01381
G1 X205.144 Y221.551 E1.10875
G1 X206.757 Y219.242 E1.20244
G1 X207.871 Y217.89 E1.2607
G1 X209.663 Y216.078 E1.34546
G1 X210.963 Y214.988 E1.40189
G1 X212.739 Y213.74 E1.47408
G1 X214.467 Y212.747 E1.54037
G1 X216.24 Y211.92 E1.60544
G1 X218.101 Y211.246 E1.67127
G1 X220.328 Y210.662 E1.74785
G1 X221.747 Y210.412 E1.79577
G1 X224.236 Y210.196 E1.87887
G1 X225.778 Y210.198 E1.93015
G1 X228.392 Y210.427 E2.01743
G1 X229.829 Y210.689 E2.06601
G1 X232.33 Y211.392 E2.15242
G1 X234.163 Y212.09 E2.21766
G1 X235.399 Y212.674 E2.26312
G1 X237.738 Y214.047 E2.35333
G1 X238.991 Y214.948 E2.40466
G1 X240.597 Y216.318 E2.47487
G1 X242.234 Y218.008 E2.55313
G1 X243.302 Y219.315 E2.60927
G1 X244.128 Y220.488 E2.65698
G1 X244.771 Y221.477 E2.69622
G1 X245.488 Y223.529 E2.76851
G1 X245.528 Y226.144 E2.8555
G1 X244.856 Y228.195 E2.92728
G1 X244.44 Y229.079 E2.95978
G1 X242.937 Y230.888 E3.038
G1 X241.373 Y231.853 E3.09913
G1 X240.157 Y232.429 E3.14388
G1 X237.784 Y232.864 E3.22412
G1 X235.116 Y232.421 E3.31408
G1 X234.723 Y232.21 E3.32891
G1 X234.691 Y232.663 E3.34402
G1 X234.231 Y234.167 E3.39633
G1 X233.517 Y235.813 E3.456
G1 X232.349 Y237.373 E3.52082
G1 X231.348 Y238.362 E3.56762
G1 X230.065 Y239.34 E3.62128
G1 X228.38 Y240.102 E3.68279
G1 X227.255 Y240.474 E3.7222
G1 X225.293 Y240.688 E3.78784
G0 F6000 X225.25 Y240.29
G1 F900 X223.634 Y240.198 E3.84167
G1 X222.63 Y239.991 E3.87577
G1 X221.027 Y239.412 E3.93246
G1 X219.619 Y238.668 E3.98542
G1 X218.346 Y237.523 E4.04237
G1 X217.114 Y235.997 E4.1076
G1 X216.516 Y234.931 E4.14826
G1 X216.02 Y233.61 E4.19519
G1 X215.66 Y231.895 E4.25347
G1 X215.635 Y231.566 E4.26445
G1 X215.021 Y231.893 E4.28758
G1 X212.995 Y232.402 E4.35706
G1 X210.539 Y232.246 E4.43891
G1 X208.323 Y231.352 E4.51839
G1 X206.727 Y229.918 E4.58975
G1 X205.687 Y228.501 E4.64821
G1 X205.015 Y226.597 E4.71537
G1 X204.798 Y224.34 E4.79078
G1 X205.512 Y221.723 E4.88101
G1 X207.066 Y219.496 E4.97133
G1 X208.18 Y218.144 E5.02959
G1 X209.92 Y216.385 E5.11189
G1 X211.22 Y215.295 E5.16831
G1 X212.938 Y214.087 E5.23816
G1 X214.636 Y213.11 E5.30332
G1 X216.409 Y212.283 E5.36839
G1 X218.203 Y211.633 E5.43186
G1 X220.398 Y211.056 E5.50734
G1 X221.782 Y210.811 E5.55409
G1 X224.271 Y210.595 E5.63719
G1 X225.743 Y210.596 E5.68614
G1 X228.32 Y210.821 E5.77218
G1 X229.757 Y211.083 E5.82076
G1 X232.188 Y211.766 E5.90475
G1 X233.992 Y212.452 E5.96894
G1 X235.228 Y213.036 E6.01441
G1 X237.504 Y214.372 E6.10219
G1 X238.757 Y215.273 E6.15352
G1 X240.31 Y216.596 E6.22137
G1 X241.924 Y218.261 E6.2985
G1 X242.975 Y219.546 E6.35372
G1 X243.793 Y220.706 E6.40093
G1 X244.408 Y221.652 E6.43845
G1 X245.089 Y223.601 E6.50712
G1 X245.127 Y226.084 E6.58972
G1 X244.494 Y228.025 E6.65762
G1 X244.101 Y228.861 E6.68834
G1 X242.67 Y230.582 E6.76279
G1 X241.202 Y231.491 E6.82022
G1 X240.03 Y232.046 E6.86335
G1 X237.783 Y232.458 E6.93933
G1 X235.245 Y232.037 E7.0249
G1 X234.367 Y231.565 E7.05805
G1 X234.295 Y232.588 E7.09216
G1 X233.864 Y234.008 E7.14152
G1 X233.169 Y235.61 E7.1996
G1 X232.068 Y237.088 E7.2609
G1 X231.067 Y238.077 E7.3077
G1 X229.859 Y238.995 E7.35816
G1 X228.255 Y239.722 E7.41674
G1 X227.171 Y240.08 E7.4547
G1 X225.25 Y240.29 E7.51898
G0 F6000 X225.206 Y239.892
G1 F900 X223.715 Y239.806 E7.56865
G1 X222.711 Y239.599 E7.60275
G1 X221.214 Y239.058 E7.65569
G1 X219.849 Y238.337 E7.70703
G1 X218.614 Y237.226 E7.76228
G1 X217.463 Y235.801 E7.82321
G1 X216.865 Y234.735 E7.86386
G1 X216.411 Y233.527 E7.90679
G1 X216.059 Y231.864 E7.96332
G1 X215.987 Y230.926 E7.99461
G1 X214.876 Y231.517 E8.03647
G1 X212.958 Y231.999 E8.10224
G1 X210.63 Y231.851 E8.17983
G1 X208.538 Y231.007 E8.25486
G1 X207.024 Y229.647 E8.32255
G1 X206.044 Y228.312 E8.37763
G1 X205.408 Y226.51 E8.44119
G1 X205.203 Y224.375 E8.51252
G1 X205.88 Y221.895 E8.59803
G1 X207.375 Y219.75 E8.68499
G1 X208.489 Y218.398 E8.74326
G1 X210.177 Y216.692 E8.82308
G1 X211.477 Y215.602 E8.8795
G1 X213.138 Y214.434 E8.94704
G1 X214.805 Y213.473 E9.01104
G1 X216.578 Y212.646 E9.07611
G1 X218.305 Y212.02 E9.13721
G1 X220.468 Y211.45 E9.2116
G1 X221.817 Y211.21 E9.25718
G1 X224.306 Y210.994 E9.34027
G1 X225.742 Y210.996 E9.38803
G1 X228.248 Y211.215 E9.4717
G1 X229.685 Y211.477 E9.52028
G1 X232.046 Y212.14 E9.60185
G1 X233.821 Y212.814 E9.665
G1 X235.057 Y213.398 E9.71046
G1 X237.27 Y214.697 E9.79581
G1 X238.523 Y215.598 E9.84714
G1 X240.05 Y216.9 E9.91389
G1 X241.614 Y218.514 E9.98864
G1 X242.665 Y219.799 E10.04385
G1 X243.458 Y220.924 E10.08963
G1 X244.045 Y221.827 E10.12545
G1 X244.69 Y223.673 E10.19049
G1 X244.726 Y226.024 E10.2687
G1 X244.114 Y227.901 E10.33436
G1 X243.762 Y228.644 E10.3617
G1 X242.405 Y230.275 E10.43227
G1 X241.031 Y231.129 E10.48608
G1 X239.903 Y231.663 E10.52759
G1 X237.782 Y232.052 E10.59931
G1 X235.373 Y231.652 E10.68053
G1 X234.011 Y230.921 E10.73194
G1 X233.899 Y232.515 E10.78509
G1 X233.497 Y233.849 E10.83143
G1 X232.82 Y235.41 E10.88802
G1 X231.787 Y236.803 E10.9457
G1 X230.786 Y237.792 E10.99251
G1 X229.654 Y238.649 E11.03973
G1 X228.13 Y239.342 E11.09541
G1 X227.087 Y239.686 E11.13194
G1 X225.206 Y239.892 E11.19488
G0 F6000 X225.228 Y239.493
G1 F900 X223.796 Y239.414 E11.24258
G1 X222.792 Y239.207 E11.27667
G1 X221.401 Y238.704 E11.32587
G1 X220.079 Y238.006 E11.37559
G1 X218.882 Y236.929 E11.42915
G1 X217.812 Y235.605 E11.48577
G1 X217.214 Y234.539 E11.52642
G1 X216.802 Y233.443 E11.56536
G1 X216.458 Y231.833 E11.62012
G1 X216.389 Y230.935 E11.65008
G1 X216.326 Y230.707 E11.65794
G1 X216.175 Y230.565 E11.66484
G1 X216.038 Y230.523 E11.6696
G1 X215.845 Y230.544 E11.67606
G1 X214.73 Y231.141 E11.71813
G1 X212.92 Y231.596 E11.7802
G1 X210.721 Y231.456 E11.85349
G1 X208.753 Y230.662 E11.92407
G1 X207.321 Y229.376 E11.98809
G1 X206.401 Y228.123 E12.03979
G1 X205.801 Y226.423 E12.09975
G1 X205.608 Y224.41 E12.16701
G1 X206.248 Y222.067 E12.24779
G1 X207.684 Y220.004 E12.33139
G1 X208.798 Y218.652 E12.38966
G1 X210.434 Y216.999 E12.46701
G1 X211.734 Y215.909 E12.52344
G1 X213.338 Y214.781 E12.58866
G1 X215.005 Y213.82 E12.65266
G1 X216.715 Y213.022 E12.71542
G1 X218.407 Y212.407 E12.7753
G1 X220.538 Y211.844 E12.84861
G1 X221.852 Y211.609 E12.89301
G1 X224.341 Y211.393 E12.9761
G1 X225.741 Y211.396 E13.02267
G1 X228.176 Y211.609 E13.10396
G1 X229.613 Y211.871 E13.15255
G1 X231.904 Y212.514 E13.23169
G1 X233.65 Y213.176 E13.2938
G1 X234.886 Y213.76 E13.33926
G1 X237.036 Y215.022 E13.42218
G1 X238.289 Y215.923 E13.47351
G1 X239.79 Y217.204 E13.53914
G1 X241.304 Y218.767 E13.61152
G1 X242.355 Y220.052 E13.66673
G1 X243.123 Y221.142 E13.71108
G1 X243.682 Y222.002 E13.7452
G1 X244.291 Y223.745 E13.80661
G1 X244.325 Y225.962 E13.88035
G1 X243.752 Y227.73 E13.94217
G1 X243.421 Y228.429 E13.96789
G1 X242.139 Y229.969 E14.03454
G1 X240.86 Y230.767 E14.08468
G1 X239.776 Y231.28 E14.12457
G1 X237.781 Y231.646 E14.19203
G1 X235.501 Y231.267 E14.2689
G1 X234.154 Y230.544 E14.31975
G1 X233.961 Y230.523 E14.32621
G1 X233.824 Y230.565 E14.33097
G1 X233.664 Y230.717 E14.33831
G1 X233.615 Y230.858 E14.34328
G1 X233.503 Y232.443 E14.39613
G1 X233.13 Y233.69 E14.43942
G1 X232.471 Y235.209 E14.49449
G1 X231.505 Y236.519 E14.54862
G1 X230.545 Y237.473 E14.59364
G1 X229.449 Y238.303 E14.63937
G1 X228.005 Y238.962 E14.69216
G1 X226.999 Y239.294 E14.72739
G1 X225.228 Y239.493 E14.78667
G0 F6000 X225.183 Y239.095
G1 F900 X223.877 Y239.022 E14.83017
G1 X222.873 Y238.815 E14.86427
G1 X221.588 Y238.35 E14.90972
G1 X220.307 Y237.673 E14.95791
G1 X219.192 Y236.677 E15.00764
G1 X218.16 Y235.408 E15.06204
G1 X217.588 Y234.397 E15.10067
G1 X217.193 Y233.359 E15.13761
G1 X216.857 Y231.802 E15.19059
G1 X216.785 Y230.866 E15.22181
G1 X216.683 Y230.494 E15.23464
G1 X216.38 Y230.209 E15.24848
G1 X216.077 Y230.117 E15.25901
G1 X215.725 Y230.154 E15.27078
G1 X214.583 Y230.766 E15.31388
G1 X212.883 Y231.193 E15.37218
G1 X210.812 Y231.061 E15.4412
G1 X208.968 Y230.317 E15.50733
G1 X207.618 Y229.105 E15.56767
G1 X206.758 Y227.934 E15.616
G1 X206.194 Y226.336 E15.67236
G1 X206.013 Y224.445 E15.73554
G1 X206.616 Y222.237 E15.81167
G1 X207.993 Y220.258 E15.89186
G1 X209.107 Y218.906 E15.95012
G1 X210.691 Y217.305 E16.02503
G1 X211.964 Y216.236 E16.08032
G1 X213.538 Y215.128 E16.14434
G1 X215.205 Y214.167 E16.20834
G1 X216.852 Y213.398 E16.2688
G1 X218.509 Y212.794 E16.32746
G1 X220.608 Y212.238 E16.39968
G1 X221.922 Y212.003 E16.44407
G1 X224.34 Y211.793 E16.5248
G1 X225.74 Y211.796 E16.57136
G1 X228.104 Y212.003 E16.65029
G1 X229.541 Y212.265 E16.69887
G1 X231.762 Y212.888 E16.7756
G1 X233.479 Y213.538 E16.83666
G1 X234.715 Y214.122 E16.88213
G1 X236.802 Y215.347 E16.96261
G1 X238.055 Y216.248 E17.01394
G1 X239.503 Y217.483 E17.07724
G1 X240.994 Y219.02 E17.14847
G1 X242.045 Y220.305 E17.20368
G1 X242.788 Y221.36 E17.2466
G1 X243.319 Y222.177 E17.27901
G1 X243.892 Y223.817 E17.33679
G1 X243.924 Y225.901 E17.40611
G1 X243.39 Y227.559 E17.46404
G1 X243.08 Y228.214 E17.48815
G1 X241.873 Y229.664 E17.5509
G1 X240.689 Y230.405 E17.59735
G1 X239.649 Y230.897 E17.63562
G1 X237.78 Y231.24 E17.69882
G1 X235.629 Y230.882 E17.77135
G1 X234.272 Y230.154 E17.82256
G1 X233.924 Y230.117 E17.8342
G1 X233.617 Y230.211 E17.84488
G1 X233.318 Y230.495 E17.8586
G1 X233.22 Y230.777 E17.86853
G1 X233.107 Y232.372 E17.92171
G1 X232.763 Y233.531 E17.96192
G1 X232.122 Y235.008 E18.01547
G1 X231.222 Y236.236 E18.06611
G1 X230.303 Y237.154 E18.10932
G1 X229.243 Y237.957 E18.15355
G1 X227.879 Y238.582 E18.20345
G1 X226.914 Y238.901 E18.23725
G1 X225.183 Y239.095 E18.29519
G0 F6000 X225.139 Y238.697
G1 F900 X223.958 Y238.63 E18.33453
G1 X222.954 Y238.423 E18.36862
G1 X221.775 Y237.996 E18.41033
G1 X220.534 Y237.34 E18.45702
G1 X219.501 Y236.424 E18.50294
G1 X218.507 Y235.21 E18.55512
G1 X217.961 Y234.253 E18.59177
G1 X217.584 Y233.274 E18.62666
G1 X217.256 Y231.771 E18.67783
G1 X217.181 Y230.796 E18.71035
G1 X217.063 Y230.368 E18.72512
G1 X216.934 Y230.181 E18.73268
G1 X216.585 Y229.853 E18.74861
G1 X216.117 Y229.71 E18.76488
G1 X215.702 Y229.754 E18.77876
G1 X215.404 Y229.872 E18.78942
G1 X214.439 Y230.39 E18.82585
G1 X212.846 Y230.79 E18.88048
G1 X210.903 Y230.666 E18.94524
G1 X209.183 Y229.972 E19.00692
G1 X207.915 Y228.834 E19.06359
G1 X207.115 Y227.745 E19.10854
G1 X206.587 Y226.249 E19.1613
G1 X206.418 Y224.48 E19.22041
G1 X206.984 Y222.407 E19.29188
G1 X208.302 Y220.512 E19.36865
G1 X209.416 Y219.16 E19.42692
G1 X210.948 Y217.611 E19.49938
G1 X212.195 Y216.563 E19.55356
G1 X213.738 Y215.475 E19.61635
G1 X215.405 Y214.514 E19.68035
G1 X216.989 Y213.774 E19.7385
G1 X218.612 Y213.181 E19.79597
G1 X220.678 Y212.632 E19.86707
G1 X221.992 Y212.397 E19.91147
G1 X224.339 Y212.193 E19.98982
G1 X225.739 Y212.196 E20.03639
G1 X228.032 Y212.397 E20.11295
G1 X229.469 Y212.659 E20.16153
G1 X231.621 Y213.262 E20.23586
G1 X233.308 Y213.9 E20.29585
G1 X234.544 Y214.484 E20.34132
G1 X236.568 Y215.672 E20.41938
G1 X237.821 Y216.573 E20.47071
G1 X239.243 Y217.787 E20.53289
G1 X240.684 Y219.273 E20.60174
G1 X241.718 Y220.536 E20.65603
G1 X242.453 Y221.578 E20.69844
G1 X242.956 Y222.352 E20.72914
G1 X243.493 Y223.889 E20.78329
G1 X243.523 Y225.841 E20.84823
G1 X243.028 Y227.388 E20.90225
G1 X242.739 Y227.999 E20.92473
G1 X241.608 Y229.358 E20.98354
G1 X240.518 Y230.043 E21.02635
G1 X239.522 Y230.514 E21.063
G1 X237.779 Y230.834 E21.12194
G1 X235.76 Y230.498 E21.19002
G1 X234.566 Y229.858 E21.23507
G1 X234.308 Y229.756 E21.2443
G1 X233.888 Y229.71 E21.25835
G1 X233.408 Y229.857 E21.27505
G1 X233.069 Y230.18 E21.29062
G1 X232.94 Y230.364 E21.2981
G1 X232.825 Y230.695 E21.30975
G1 X232.711 Y232.297 E21.36317
G1 X232.379 Y233.417 E21.40202
G1 X231.772 Y234.809 E21.45253
G1 X230.899 Y236 E21.50165
G1 X230.061 Y236.835 E21.54099
G1 X229.033 Y237.614 E21.58389
G1 X227.753 Y238.202 E21.63074
G1 X226.828 Y238.508 E21.66315
G1 X225.139 Y238.697 E21.71968
G0 F6000 X225.095 Y238.299
G1 F900 X224.037 Y238.238 E21.75492
G1 X223.089 Y238.046 E21.78709
G1 X221.962 Y237.642 E21.82691
G1 X220.761 Y237.007 E21.8721
G1 X219.81 Y236.17 E21.91424
G1 X218.854 Y235.01 E21.96423
G1 X218.334 Y234.107 E21.99889
G1 X217.975 Y233.188 E22.0317
G1 X217.655 Y231.74 E22.08103
G1 X217.578 Y230.739 E22.11442
G1 X217.523 Y230.472 E22.12349
G1 X217.422 Y230.185 E22.13361
G1 X217.237 Y229.917 E22.14444
G1 X216.918 Y229.616 E22.15902
G1 X216.672 Y229.461 E22.16869
G1 X216.344 Y229.361 E22.1801
G1 X216.059 Y229.313 E22.18971
G1 X215.606 Y229.362 E22.20487
G1 X215.237 Y229.508 E22.21807
G1 X214.296 Y230.013 E22.25359
G1 X212.808 Y230.387 E22.30462
G1 X210.994 Y230.271 E22.36507
G1 X209.398 Y229.627 E22.42232
G1 X208.212 Y228.563 E22.47531
G1 X207.472 Y227.556 E22.51687
G1 X206.98 Y226.162 E22.56604
G1 X206.823 Y224.515 E22.62107
G1 X207.352 Y222.577 E22.68788
G1 X208.611 Y220.766 E22.76124
G1 X209.725 Y219.414 E22.81951
G1 X211.206 Y217.917 E22.88955
G1 X212.426 Y216.89 E22.94259
G1 X213.938 Y215.822 E23.00416
G1 X215.605 Y214.861 E23.06816
G1 X217.127 Y214.15 E23.12403
G1 X218.715 Y213.568 E23.18028
G1 X220.748 Y213.026 E23.25026
G1 X222.062 Y212.791 E23.29466
G1 X224.338 Y212.593 E23.37065
G1 X225.738 Y212.596 E23.41721
G1 X227.96 Y212.791 E23.4914
G1 X229.397 Y213.053 E23.53998
G1 X231.48 Y213.636 E23.61192
G1 X233.137 Y214.262 E23.67084
G1 X234.373 Y214.846 E23.71631
G1 X236.334 Y215.997 E23.79193
G1 X237.587 Y216.898 E23.84326
G1 X238.983 Y218.091 E23.90434
G1 X240.374 Y219.526 E23.97081
G1 X241.408 Y220.789 E24.0251
G1 X242.118 Y221.796 E24.06608
G1 X242.593 Y222.527 E24.09508
G1 X243.094 Y223.961 E24.1456
G1 X243.122 Y225.782 E24.20617
G1 X242.666 Y227.217 E24.25625
G1 X242.398 Y227.784 E24.27711
G1 X241.341 Y229.054 E24.33207
G1 X240.347 Y229.681 E24.37116
G1 X239.395 Y230.131 E24.40618
G1 X237.778 Y230.428 E24.46086
G1 X235.891 Y230.114 E24.52449
G1 X234.74 Y229.497 E24.56792
G1 X234.402 Y229.364 E24.58
G1 X233.941 Y229.313 E24.59543
G1 X233.663 Y229.36 E24.60481
G1 X233.326 Y229.463 E24.61653
G1 X233.079 Y229.619 E24.62624
G1 X232.763 Y229.919 E24.64074
G1 X232.58 Y230.181 E24.65137
G1 X232.43 Y230.614 E24.66661
G1 X232.315 Y232.223 E24.72026
G1 X231.995 Y233.303 E24.75772
G1 X231.426 Y234.604 E24.80495
G1 X230.576 Y235.763 E24.85276
G1 X229.819 Y236.516 E24.88827
G1 X228.823 Y237.271 E24.92984
G1 X227.627 Y237.822 E24.97364
G1 X226.742 Y238.115 E25.00464
G1 X225.095 Y238.299 E25.05976
G0 F6000 X225.05 Y237.901
G1 F900 X224.115 Y237.846 E25.09092
G1 X223.224 Y237.669 E25.12113
G1 X222.097 Y237.265 E25.16095
G1 X220.989 Y236.675 E25.2027
G1 X220.118 Y235.914 E25.24117
G1 X219.201 Y234.81 E25.2889
