;FLAVOR:Marlin
;TIME:47497
;Filament used: 35.7584m
;Layer height: 0.2
;MINX:260.822
;MINY:260.839
;MINZ:0.2
;MAXX:428.82
;MAXY:416.22
;MAXZ:5.4
;TARGET_MACHINE.NAME:Creality CR-10 Max
;Generated with Cura_SteamEngine 5.8.1
M140 S70
M105
M190 S70
M104 S215
M105
M109 S215
M82 ;absolute extrusion mode
M201 X500.00 Y500.00 Z100.00 E5000.00 ;Setup machine max acceleration
M203 X500.00 Y500.00 Z10.00 E50.00 ;Setup machine max feedrate
M204 P500.00 R1000.00 T500.00 ;Setup Print/Retract/Travel acceleration
M205 X8.00 Y8.00 Z0.40 E5.00 ;Setup Jerk
M220 S100 ;Reset Feedrate
M221 S100 ;Reset Flowrate

G28 ;Home
G29 ;Auto bed Level

G92 E0 ;Reset Extruder
G1 Z2.0 F3000 ;Move Z Axis up
G1 X10.1 Y20 Z0.28 F5000.0 ;Move to start position
G1 X10.1 Y200.0 Z0.28 F1500.0 E15 ;Draw the first line
G1 X10.4 Y200.0 Z0.28 F5000.0 ;Move to side a little
G1 X10.4 Y20 Z0.28 F1500.0 E30 ;Draw the second line
G92 E0 ;Reset Extruder
G1 Z2.0 F3000 ;Move Z Axis up

G92 E0
G92 E0
G1 F1500 E-6.5
;LAYER_COUNT:27
;LAYER:0
M107
G0 F6000 X286.898 Y279.154 Z0.2
;TYPE:SKIRT
G1 F1500 E0
G1 F900 X293.053 Y273.83 E0.27067
G1 X300.196 Y268.821 E0.56084
G1 X307.071 Y264.948 E0.8233
G1 X315.562 Y261.205 E1.13193
G1 X317.277 Y260.839 E1.19026
G1 X372.494 Y260.895 E3.02678
G1 X373.817 Y261.093 E3.07127
G1 X382.605 Y264.964 E3.39066
G1 X389.443 Y268.818 E3.65173
G1 X396.859 Y274.047 E3.95354
G1 X403.15 Y279.541 E4.23134
G1 X408.576 Y285.292 E4.49431
G1 X414.196 Y292.62 E4.80147
G1 X418.316 Y299.306 E5.06268
G1 X422.285 Y307.497 E5.36541
G1 X424.938 Y314.737 E5.62187
G1 X427.197 Y323.56 E5.92479
G1 X428.448 Y332.071 E6.21091
G1 X428.82 Y339.772 E6.46734
G1 X428.322 Y349.014 E6.77518
G1 X426.997 Y357.349 E7.05588
G1 X425.054 Y364.827 E7.31286
G1 X421.962 Y373.206 E7.60992
G1 X418.23 Y380.794 E7.89117
G1 X413.587 Y388.206 E8.18207
G1 X408.839 Y394.351 E8.44035
G1 X402.494 Y401.052 E8.74729
G1 X396.427 Y406.26 E9.01323
G1 X389.375 Y411.188 E9.29937
G1 X381.187 Y415.776 E9.61155
G1 X379.13 Y416.22 E9.68154
G1 X310.544 Y416.219 E11.96272
G1 X308.514 Y415.809 E12.0316
G1 X300.266 Y411.188 E12.34605
G1 X293.262 Y406.296 E12.6302
G1 X287.134 Y401.037 E12.89878
G1 X280.777 Y394.323 E13.20631
G1 X275.663 Y387.664 E13.48556
G1 X271.523 Y381.019 E13.74596
G1 X267.663 Y373.161 E14.03715
G1 X264.588 Y364.826 E14.33264
G1 X262.621 Y357.235 E14.59346
G1 X261.32 Y349.014 E14.87029
G1 X260.822 Y339.757 E15.17862
G1 X261.202 Y331.974 E15.4378
G1 X262.444 Y323.556 E15.72081
G1 X264.703 Y314.737 E16.0236
G1 X267.355 Y307.499 E16.27999
G1 X271.251 Y299.45 E16.57741
G1 X275.603 Y292.39 E16.85326
G1 X280.579 Y285.864 E17.12621
G1 X286.898 Y279.154 E17.43277
G0 F6000 X287.16 Y279.457
G1 F900 X293.315 Y274.133 E17.70345
G1 X300.392 Y269.17 E17.99094
G1 X307.267 Y265.297 E18.25339
G1 X315.685 Y261.588 E18.55935
G1 X317.319 Y261.239 E18.61492
G1 X372.435 Y261.291 E20.44809
G1 X373.707 Y261.481 E20.49086
G1 X382.444 Y265.33 E20.80841
G1 X389.212 Y269.145 E21.06681
G1 X396.628 Y274.374 E21.36862
G1 X402.859 Y279.816 E21.64377
G1 X408.285 Y285.567 E21.90675
G1 X413.855 Y292.83 E22.21118
G1 X417.975 Y299.516 E22.47239
G1 X421.909 Y307.635 E22.77246
G1 X424.562 Y314.875 E23.02892
G1 X426.801 Y323.618 E23.32909
G1 X428.048 Y332.09 E23.61391
G1 X428.42 Y339.791 E23.87035
G1 X427.927 Y348.951 E24.17545
G1 X426.61 Y357.248 E24.45486
G1 X424.667 Y364.726 E24.71184
G1 X421.603 Y373.029 E25.0062
G1 X417.871 Y380.617 E25.28745
G1 X413.27 Y387.962 E25.57572
G1 X408.548 Y394.076 E25.83266
G1 X402.233 Y400.748 E26.13821
G1 X396.166 Y405.956 E26.40415
G1 X389.179 Y410.839 E26.68767
G1 X381.043 Y415.398 E26.99786
G1 X379.088 Y415.82 E27.06438
G1 X310.583 Y415.819 E29.34287
G1 X308.656 Y415.43 E29.40825
G1 X300.462 Y410.839 E29.72065
G1 X293.523 Y405.992 E30.00217
G1 X287.395 Y400.733 E30.27075
G1 X281.094 Y394.079 E30.57555
G1 X276.003 Y387.452 E30.85349
G1 X271.863 Y380.807 E31.11389
G1 X268.022 Y372.985 E31.40373
G1 X264.975 Y364.726 E31.69652
G1 X263.016 Y357.172 E31.95608
G1 X261.715 Y348.951 E32.23291
G1 X261.222 Y339.777 E32.53848
G1 X261.602 Y331.994 E32.79765
G1 X262.84 Y323.614 E33.0794
G1 X265.079 Y314.875 E33.37945
G1 X267.731 Y307.637 E33.63584
G1 X271.592 Y299.66 E33.9306
G1 X275.944 Y292.6 E34.20644
G1 X280.87 Y286.138 E34.4767
G1 X287.16 Y279.457 E34.78189
G0 F6000 X287.422 Y279.76
G1 F900 X293.577 Y274.436 E35.05257
G1 X300.588 Y269.519 E35.33738
G1 X307.463 Y265.646 E35.59984
G1 X315.809 Y261.97 E35.90316
G1 X317.36 Y261.639 E35.95591
G1 X372.376 Y261.687 E37.78575
G1 X373.597 Y261.869 E37.82681
G1 X382.248 Y265.679 E38.14121
G1 X388.981 Y269.472 E38.39824
G1 X396.397 Y274.701 E38.70004
G1 X402.568 Y280.091 E38.97256
G1 X407.994 Y285.842 E39.23554
G1 X413.514 Y293.04 E39.53724
G1 X417.634 Y299.726 E39.79845
G1 X421.533 Y307.773 E40.09585
G1 X424.186 Y315.013 E40.35231
G1 X426.405 Y323.676 E40.64975
G1 X427.648 Y332.109 E40.93326
G1 X428.02 Y339.81 E41.1897
G1 X427.532 Y348.888 E41.49207
G1 X426.223 Y357.147 E41.77019
G1 X424.28 Y364.625 E42.02717
G1 X421.244 Y372.852 E42.31884
G1 X417.512 Y380.44 E42.60009
G1 X412.953 Y387.718 E42.88573
G1 X408.231 Y393.832 E43.14267
G1 X401.972 Y400.444 E43.44549
G1 X395.905 Y405.652 E43.71143
G1 X388.983 Y410.49 E43.99231
G1 X380.899 Y415.02 E44.30053
G1 X379.046 Y415.42 E44.36358
G1 X310.622 Y415.419 E46.63937
G1 X308.798 Y415.051 E46.70126
G1 X300.658 Y410.49 E47.0116
G1 X293.784 Y405.688 E47.29049
G1 X287.656 Y400.429 E47.55907
G1 X281.411 Y393.835 E47.86114
G1 X276.343 Y387.24 E48.13778
G1 X272.203 Y380.595 E48.39817
G1 X268.381 Y372.809 E48.68666
G1 X265.362 Y364.625 E48.97679
G1 X263.411 Y357.109 E49.23505
G1 X262.11 Y348.888 E49.51189
G1 X261.622 Y339.797 E49.81469
G1 X262.002 Y332.014 E50.07386
G1 X263.236 Y323.673 E50.35431
G1 X265.455 Y315.013 E50.65164
G1 X268.107 Y307.775 E50.90803
G1 X271.933 Y299.87 E51.20013
G1 X276.285 Y292.81 E51.47598
G1 X281.188 Y286.381 E51.74489
G1 X287.422 Y279.76 E52.04736
G0 F6000 X287.684 Y280.063
G1 F900 X293.839 Y274.739 E52.31803
G1 X300.784 Y269.868 E52.60018
G1 X307.659 Y265.995 E52.86263
G1 X315.932 Y262.353 E53.16327
G1 X317.402 Y262.039 E53.21327
G1 X372.317 Y262.083 E55.03975
G1 X373.487 Y262.257 E55.07909
G1 X382.052 Y266.028 E55.39035
G1 X388.785 Y269.821 E55.64738
G1 X396.134 Y275.002 E55.94645
G1 X402.277 Y280.366 E56.21769
G1 X407.703 Y286.117 E56.48067
G1 X413.173 Y293.25 E56.77964
G1 X417.293 Y299.936 E57.04085
G1 X421.157 Y307.911 E57.33559
G1 X423.81 Y315.151 E57.59206
G1 X426.009 Y323.734 E57.88675
G1 X427.248 Y332.128 E58.16896
G1 X427.62 Y339.829 E58.42539
G1 X427.137 Y348.825 E58.72503
G1 X425.836 Y357.046 E59.00187
G1 X423.893 Y364.524 E59.25884
G1 X420.885 Y372.675 E59.54782
G1 X417.153 Y380.263 E59.82907
G1 X412.636 Y387.474 E60.11208
G1 X407.914 Y393.588 E60.36902
G1 X401.711 Y400.14 E60.66911
G1 X395.644 Y405.348 E60.93505
G1 X388.787 Y410.141 E61.21331
G1 X380.755 Y414.642 E61.51954
G1 X379.004 Y415.02 E61.57912
G1 X310.661 Y415.019 E63.85221
G1 X308.94 Y414.672 E63.91061
G1 X300.854 Y410.141 E64.21889
G1 X294.045 Y405.384 E64.49516
G1 X287.917 Y400.125 E64.76374
G1 X281.728 Y393.591 E65.06307
G1 X276.683 Y387.028 E65.3384
G1 X272.543 Y380.383 E65.5988
G1 X268.74 Y372.633 E65.88593
G1 X265.749 Y364.524 E66.1734
G1 X263.806 Y357.046 E66.43037
G1 X262.505 Y348.825 E66.70721
G1 X262.022 Y339.817 E67.00725
G1 X262.402 Y332.034 E67.26642
G1 X263.632 Y323.732 E67.54556
G1 X265.831 Y315.151 E67.84019
G1 X268.483 Y307.913 E68.09657
G1 X272.274 Y300.08 E68.38601
G1 X276.626 Y293.02 E68.66185
G1 X281.506 Y286.624 E68.92943
G1 X287.684 Y280.063 E69.22917
G0 F6000 X287.946 Y280.366
G1 F900 X294.101 Y275.042 E69.49985
G1 X300.98 Y270.217 E69.77931
G1 X307.855 Y266.344 E70.04176
G1 X316.056 Y262.735 E70.33977
G1 X317.443 Y262.439 E70.38695
G1 X372.258 Y262.479 E72.2101
G1 X373.377 Y262.645 E72.24773
G1 X381.856 Y266.377 E72.55585
G1 X388.589 Y270.17 E72.81288
G1 X395.871 Y275.303 E73.1092
G1 X401.986 Y280.641 E73.37918
G1 X407.412 Y286.392 E73.64215
G1 X412.832 Y293.46 E73.9384
G1 X416.952 Y300.146 E74.19961
G1 X420.781 Y308.049 E74.49169
G1 X423.434 Y315.289 E74.74815
G1 X425.613 Y323.792 E75.0401
G1 X426.848 Y332.147 E75.32101
G1 X427.22 Y339.848 E75.57744
G1 X426.742 Y348.763 E75.87438
G1 X425.449 Y356.945 E76.14989
G1 X423.506 Y364.423 E76.40687
G1 X420.526 Y372.498 E76.69315
G1 X416.794 Y380.086 E76.9744
G1 X412.319 Y387.23 E77.25478
G1 X407.597 Y393.344 E77.51172
G1 X401.45 Y399.836 E77.80908
G1 X395.383 Y405.044 E78.07502
G1 X388.591 Y409.792 E78.35065
G1 X380.611 Y414.264 E78.6549
G1 X378.962 Y414.62 E78.71101
G1 X310.7 Y414.619 E80.98141
G1 X309.082 Y414.293 E81.03631
G1 X301.05 Y409.792 E81.34254
G1 X294.306 Y405.08 E81.61617
G1 X288.178 Y399.821 E81.88476
G1 X282.045 Y393.347 E82.18136
G1 X277.023 Y386.816 E82.45538
G1 X272.883 Y380.171 E82.71578
G1 X269.115 Y372.494 E83.00021
G1 X266.136 Y364.423 E83.28636
G1 X264.193 Y356.945 E83.54334
G1 X262.9 Y348.763 E83.81885
G1 X262.422 Y339.837 E84.11615
G1 X262.802 Y332.054 E84.37533
G1 X264.02 Y323.831 E84.65181
G1 X266.207 Y315.289 E84.94508
G1 X268.859 Y308.051 E85.20147
G1 X272.615 Y300.29 E85.48824
G1 X276.967 Y293.23 E85.76408
G1 X281.824 Y286.867 E86.03033
G1 X287.946 Y280.366 E86.32734
G0 F6000 X288.208 Y280.669
G1 F900 X294.363 Y275.345 E86.59801
G1 X301.176 Y270.566 E86.8748
G1 X308.051 Y266.693 E87.13725
G1 X316.179 Y263.118 E87.43259
G1 X317.485 Y262.839 E87.477
G1 X372.199 Y262.875 E89.2968
G1 X373.267 Y263.033 E89.33271
G1 X381.66 Y266.726 E89.63769
G1 X388.393 Y270.519 E89.89472
G1 X395.608 Y275.604 E90.1883
G1 X401.695 Y280.916 E90.45701
G1 X407.121 Y286.667 E90.71998
G1 X412.491 Y293.67 E91.0135
G1 X416.611 Y300.356 E91.27471
G1 X420.405 Y308.187 E91.56413
G1 X423.058 Y315.427 E91.82059
G1 X425.225 Y323.891 E92.11118
G1 X426.448 Y332.166 E92.3894
G1 X426.82 Y339.867 E92.64583
G1 X426.347 Y348.701 E92.94008
G1 X425.062 Y356.844 E93.21426
G1 X423.119 Y364.322 E93.47124
G1 X420.167 Y372.321 E93.75483
G1 X416.435 Y379.909 E94.03608
G1 X412.002 Y386.986 E94.31383
G1 X407.28 Y393.1 E94.57077
G1 X401.189 Y399.532 E94.8654
G1 X395.122 Y404.74 E95.13134
G1 X388.395 Y409.443 E95.40434
G1 X380.467 Y413.886 E95.70661
G1 X378.92 Y414.22 E95.75925
G1 X310.739 Y414.219 E98.02696
G1 X309.224 Y413.914 E98.07836
G1 X301.246 Y409.443 E98.38253
G1 X294.567 Y404.776 E98.65354
G1 X288.439 Y399.517 E98.92212
G1 X282.362 Y393.103 E99.216
G1 X277.363 Y386.604 E99.4887
G1 X273.223 Y379.959 E99.7491
G1 X269.474 Y372.318 E100.03218
G1 X266.523 Y364.322 E100.31567
G1 X264.58 Y356.844 E100.57264
G1 X263.295 Y348.701 E100.84683
G1 X262.822 Y339.857 E101.14141
G1 X263.202 Y332.074 E101.40058
G1 X264.416 Y323.89 E101.67576
G1 X266.583 Y315.427 E101.96632
G1 X269.235 Y308.189 E102.22271
G1 X272.956 Y300.5 E102.50682
G1 X277.308 Y293.44 E102.78266
G1 X282.142 Y287.11 E103.04757
G1 X288.208 Y280.669 E103.34185
G0 F6000 X288.47 Y280.972
G1 F900 X294.625 Y275.648 E103.61252
G1 X301.372 Y270.915 E103.88664
G1 X308.247 Y267.042 E104.14909
G1 X316.303 Y263.5 E104.44179
G1 X317.526 Y263.239 E104.48338
G1 X372.141 Y263.271 E106.29988
G1 X373.157 Y263.421 E106.33404
G1 X381.464 Y267.075 E106.63588
G1 X388.197 Y270.868 E106.89291
G1 X395.345 Y275.905 E107.18375
G1 X401.404 Y281.191 E107.45119
G1 X406.83 Y286.942 E107.71416
G1 X412.15 Y293.88 E108.00495
G1 X416.27 Y300.566 E108.26616
G1 X420.029 Y308.325 E108.55292
G1 X422.682 Y315.565 E108.80938
G1 X424.829 Y323.95 E109.09726
G1 X426.048 Y332.185 E109.37414
G1 X426.42 Y339.886 E109.63058
G1 X425.952 Y348.639 E109.92212
G1 X424.675 Y356.743 E110.19499
G1 X422.732 Y364.221 E110.45196
G1 X419.808 Y372.144 E110.73286
G1 X416.076 Y379.732 E111.01411
G1 X411.685 Y386.742 E111.28923
G1 X406.963 Y392.856 E111.54617
G1 X400.928 Y399.228 E111.83807
G1 X394.861 Y404.436 E112.10401
G1 X388.199 Y409.094 E112.37438
G1 X380.323 Y413.508 E112.67467
G1 X378.878 Y413.82 E112.72384
G1 X310.778 Y413.819 E114.98885
G1 X309.366 Y413.535 E115.03675
G1 X301.442 Y409.094 E115.33888
G1 X294.828 Y404.472 E115.60725
G1 X288.7 Y399.213 E115.87583
G1 X282.679 Y392.859 E116.16698
G1 X277.703 Y386.392 E116.43838
G1 X273.563 Y379.747 E116.69878
G1 X269.833 Y372.142 E116.98051
G1 X266.91 Y364.221 E117.26132
G1 X264.967 Y356.743 E117.5183
G1 X263.69 Y348.639 E117.79117
G1 X263.222 Y339.877 E118.08301
G1 X263.602 Y332.094 E118.34218
G1 X264.812 Y323.949 E118.61606
G1 X266.959 Y315.565 E118.90391
G1 X269.611 Y308.327 E119.1603
G1 X273.297 Y300.71 E119.44174
G1 X277.649 Y293.65 E119.71759
G1 X282.46 Y287.353 E119.98116
G1 X288.47 Y280.972 E120.27271
G0 F6000 X288.732 Y281.275
G1 F900 X294.887 Y275.951 E120.54338
G1 X301.568 Y271.264 E120.81482
G1 X308.443 Y267.391 E121.07727
G1 X316.426 Y263.883 E121.36729
G1 X317.568 Y263.639 E121.40613
G1 X372.141 Y263.671 E123.22124
G1 X373.044 Y263.808 E123.25162
G1 X381.268 Y267.424 E123.55042
G1 X388.001 Y271.217 E123.80745
G1 X395.082 Y276.206 E124.09555
G1 X401.113 Y281.466 E124.36172
G1 X406.539 Y287.217 E124.62469
G1 X411.809 Y294.09 E124.91276
G1 X415.929 Y300.776 E125.17396
G1 X419.653 Y308.463 E125.45806
G1 X422.306 Y315.703 E125.71452
G1 X424.433 Y324.009 E125.99969
G1 X425.648 Y332.204 E126.27524
G1 X426.02 Y339.905 E126.53167
G1 X425.557 Y348.577 E126.82052
G1 X424.288 Y356.642 E127.09206
G1 X422.345 Y364.12 E127.34904
G1 X419.449 Y371.967 E127.62724
G1 X415.717 Y379.555 E127.90849
G1 X411.368 Y386.498 E128.18097
G1 X406.646 Y392.612 E128.43792
G1 X400.667 Y398.924 E128.72709
G1 X394.6 Y404.132 E128.99303
G1 X388.003 Y408.745 E129.26077
G1 X380.179 Y413.13 E129.55908
G1 X378.836 Y413.42 E129.60477
G1 X310.817 Y413.419 E131.86709
G1 X309.508 Y413.156 E131.9115
G1 X301.638 Y408.745 E132.21157
G1 X295.089 Y404.168 E132.47732
G1 X288.961 Y398.909 E132.7459
G1 X282.996 Y392.615 E133.03432
G1 X278.043 Y386.18 E133.3044
G1 X273.903 Y379.535 E133.5648
G1 X270.192 Y371.966 E133.84518
G1 X267.297 Y364.12 E134.12333
G1 X265.354 Y356.642 E134.38031
G1 X264.085 Y348.577 E134.65185
G1 X263.622 Y339.897 E134.94096
G1 X264.002 Y332.114 E135.20013
G1 X265.208 Y324.008 E135.47271
G1 X267.335 Y315.703 E135.75785
G1 X269.987 Y308.465 E136.01424
G1 X273.638 Y300.92 E136.29302
G1 X277.99 Y293.86 E136.56887
G1 X282.778 Y287.596 E136.8311
G1 X288.732 Y281.275 E137.11992
G0 F6000 X288.994 Y281.578
G1 F900 X295.149 Y276.254 E137.39059
G1 X301.764 Y271.613 E137.65936
G1 X308.639 Y267.74 E137.92181
G1 X316.55 Y264.265 E138.2092
G1 X317.609 Y264.039 E138.24521
G1 X372.081 Y264.067 E140.05696
G1 X372.934 Y264.196 E140.08565
G1 X381.072 Y267.773 E140.38131
G1 X387.805 Y271.566 E140.63834
G1 X394.819 Y276.508 E140.92372
G1 X400.822 Y281.741 E141.1886
G1 X406.248 Y287.492 E141.45157
G1 X411.468 Y294.3 E141.73691
G1 X415.588 Y300.986 E141.99812
G1 X419.277 Y308.601 E142.27955
G1 X421.93 Y315.841 E142.53601
G1 X424.037 Y324.068 E142.81847
G1 X425.248 Y332.223 E143.09268
G1 X425.62 Y339.924 E143.34912
G1 X425.162 Y348.515 E143.63526
G1 X423.901 Y356.541 E143.90548
G1 X421.958 Y364.019 E144.16246
G1 X419.09 Y371.79 E144.43796
G1 X415.358 Y379.378 E144.71921
G1 X411.051 Y386.254 E144.98907
G1 X406.329 Y392.368 E145.24601
G1 X400.406 Y398.62 E145.53245
G1 X394.339 Y403.828 E145.79839
G1 X387.807 Y408.396 E146.0635
G1 X380.035 Y412.752 E146.35983
G1 X378.794 Y413.02 E146.40206
G1 X310.856 Y413.019 E148.66169
G1 X309.648 Y412.776 E148.70267
G1 X301.867 Y408.417 E148.99931
G1 X295.35 Y403.864 E149.26373
G1 X289.222 Y398.605 E149.53231
G1 X283.313 Y392.371 E149.818
G1 X278.383 Y385.968 E150.08677
G1 X274.243 Y379.323 E150.34717
G1 X270.551 Y371.79 E150.62619
G1 X267.684 Y364.019 E150.90169
G1 X265.741 Y356.541 E151.15867
G1 X264.48 Y348.515 E151.42889
G1 X264.022 Y339.917 E151.71526
G1 X264.402 Y332.134 E151.97443
G1 X265.604 Y324.067 E152.24571
G1 X267.711 Y315.841 E152.52814
G1 X270.363 Y308.603 E152.78452
G1 X273.979 Y301.13 E153.06065
G1 X278.331 Y294.07 E153.33649
G1 X283.096 Y287.839 E153.59739
G1 X288.994 Y281.578 E153.88348
G0 F6000 X289.256 Y281.881
G1 F900 X295.411 Y276.557 E154.15415
G1 X301.96 Y271.962 E154.42024
G1 X308.835 Y268.089 E154.68269
G1 X316.673 Y264.648 E154.9674
G1 X317.651 Y264.439 E155.00066
