;FLAVOR:Marlin
;TIME:4748
;Filament used: 7.98088m
;Layer height: 0.28
;MINX:85.625
;MINY:64.386
;MINZ:0.28
;MAXX:155.625
;MAXY:134.358
;MAXZ:53.12
;TARGET_MACHINE.NAME:Creality Ender-3 V3 SE
;Generated with Cura_SteamEngine 5.8.1
M82 ;absolute extrusion mode
M220 S100 ;Reset Feedrate
M221 S100 ;Reset Flowrate

G28 ;Home

M420 S1; Use saved mesh leveling data

G92 E0 ;Reset Extruder
G1 Z2.0 F3000 ;Move Z Axis up
G1 X-3 Y20 Z0.28 F5000.0 ;Move to start position
M190 S60 ; Set bed temperature and wait
M109 S200 ; Set hotend temperature and wait
G1 X-3 Y100.0 Z0.28 F1500.0 E15 ;Draw the first line
G1 X-2 Y100.0 Z0.28 F5000.0 ;Move to side a little
G1 X-2 Y20 Z0.28 F1500.0 E30 ;Draw the second line
G92 E0 ;Reset Extruder
G1 E-1.0000 F1800 ;Retract a bit
G1 Z2.0 F3000 ;Move Z Axis up
G1 E0.0000 F1800 

G92 E0
G92 E0
G1 F2400 E-0.8
;LAYER_COUNT:189
;LAYER:0
M107
G1 F300 Z0.48
G0 F9000 X90.052 Y71.823 Z0.48
;TYPE:SKIRT
G1 F300 Z0.28
G1 F2400 E0
G1 F1800 X91.376 Y70.343 E0.09247
G1 X92.445 Y69.336 E0.16085
G1 X93.992 Y68.106 E0.25288
G1 X95.039 Y67.407 E0.3115
G1 X96.944 Y66.359 E0.41274
G1 X98.265 Y65.782 E0.47986
G1 X100.085 Y65.157 E0.56947
G1 X101.25 Y64.859 E0.62546
G1 X103.412 Y64.494 E0.72756
G1 X104.462 Y64.405 E0.77663
G1 X106.54 Y64.399 E0.87339
G1 X107.807 Y64.496 E0.93256
G1 X110.196 Y64.902 E1.04539
G1 X111.308 Y65.198 E1.09898
G1 X113.171 Y65.858 E1.19101
G1 X114.872 Y66.641 E1.2782
G1 X116.096 Y67.336 E1.34374
G1 X117.724 Y68.454 E1.4357
G1 X118.812 Y69.343 E1.50113
G1 X120.247 Y70.734 E1.59419
G1 X120.628 Y71.175 E1.62133
G1 X121.376 Y70.343 E1.67342
G1 X122.445 Y69.336 E1.74181
G1 X123.992 Y68.106 E1.83383
G1 X125.039 Y67.407 E1.89245
G1 X126.944 Y66.359 E1.9937
G1 X128.265 Y65.782 E2.06082
G1 X130.085 Y65.157 E2.15042
G1 X131.25 Y64.859 E2.20642
G1 X133.412 Y64.494 E2.30851
G1 X134.462 Y64.405 E2.35758
G1 X136.095 Y64.386 E2.43363
G1 X137.772 Y64.496 E2.51188
G1 X140.196 Y64.902 E2.62633
G1 X141.308 Y65.198 E2.67991
G1 X143.171 Y65.858 E2.77194
G1 X144.872 Y66.641 E2.85913
G1 X146.096 Y67.336 E2.92468
G1 X147.724 Y68.454 E3.01664
G1 X148.812 Y69.343 E3.08206
G1 X150.247 Y70.731 E3.17502
G1 X151.253 Y71.897 E3.24673
G1 X152.38 Y73.461 E3.3365
G1 X153.217 Y74.863 E3.41253
G1 X153.875 Y76.201 E3.48196
G1 X154.571 Y77.98 E3.57091
G1 X155.059 Y79.658 E3.65228
G1 X155.331 Y80.959 E3.71417
G1 X155.581 Y83.065 E3.81292
G1 X155.625 Y84.385 E3.87442
G1 X155.518 Y86.417 E3.96917
G1 X155.317 Y87.851 E4.0366
G1 X154.925 Y89.592 E4.11969
G1 X154.461 Y91.087 E4.19258
G1 X153.788 Y92.741 E4.27573
G1 X153.119 Y94.062 E4.34468
G1 X151.983 Y95.884 E4.44466
G1 X151.198 Y96.927 E4.50545
G1 X149.897 Y98.383 E4.59637
G1 X148.846 Y99.375 E4.66366
G1 X150.247 Y100.731 E4.75445
G1 X151.253 Y101.897 E4.82616
G1 X152.38 Y103.461 E4.91592
G1 X153.217 Y104.863 E4.99196
G1 X153.875 Y106.201 E5.06138
G1 X154.571 Y107.98 E5.15034
G1 X155.059 Y109.658 E5.23171
G1 X155.331 Y110.959 E5.2936
G1 X155.581 Y113.065 E5.39235
G1 X155.625 Y114.583 E5.46307
G1 X155.545 Y116.188 E5.53789
G1 X155.317 Y117.851 E5.61605
G1 X154.925 Y119.592 E5.69915
G1 X154.461 Y121.087 E5.77204
G1 X153.788 Y122.741 E5.85519
G1 X153.119 Y124.062 E5.92414
G1 X151.983 Y125.884 E6.02412
G1 X151.198 Y126.927 E6.0849
G1 X149.874 Y128.407 E6.17737
G1 X148.805 Y129.414 E6.24576
G1 X147.258 Y130.644 E6.33778
G1 X146.211 Y131.343 E6.3964
G1 X144.312 Y132.39 E6.49738
G1 X143.114 Y132.919 E6.55836
G1 X141.142 Y133.594 E6.65541
G1 X139.612 Y133.969 E6.72877
G1 X137.783 Y134.256 E6.81497
G1 X136.324 Y134.358 E6.88308
G1 X134.742 Y134.353 E6.95674
G1 X133.03 Y134.203 E7.03676
G1 X131.029 Y133.836 E7.13149
G1 X129.695 Y133.471 E7.19589
G1 X127.849 Y132.802 E7.28732
G1 X126.69 Y132.27 E7.3467
G1 X124.926 Y131.27 E7.44112
G1 X123.653 Y130.394 E7.51308
G1 X122.363 Y129.341 E7.59062
G1 X121.107 Y128.129 E7.67189
G1 X119.982 Y126.834 E7.75177
G1 X118.915 Y125.363 E7.83639
G1 X118.115 Y124.033 E7.90866
G1 X117.26 Y122.276 E7.99964
G1 X116.656 Y120.697 E8.07836
G1 X116.191 Y119.091 E8.15622
G1 X115.919 Y117.79 E8.21811
G1 X115.669 Y115.684 E8.31686
G1 X115.625 Y114.365 E8.37831
G1 X115.732 Y112.333 E8.47306
G1 X115.933 Y110.899 E8.54049
G1 X116.325 Y109.158 E8.62358
G1 X116.789 Y107.663 E8.69647
G1 X117.462 Y106.009 E8.77962
G1 X118.131 Y104.688 E8.84857
G1 X119.267 Y102.866 E8.94855
G1 X120.052 Y101.823 E9.00934
G1 X121.354 Y100.367 E9.10029
G1 X122.405 Y99.376 E9.16755
G1 X121.009 Y98.024 E9.25804
G1 X120.621 Y97.575 E9.28567
G1 X119.874 Y98.407 E9.33774
G1 X118.805 Y99.414 E9.40612
G1 X117.258 Y100.644 E9.49815
G1 X116.211 Y101.343 E9.55677
G1 X114.312 Y102.39 E9.65775
G1 X113.145 Y102.907 E9.71718
G1 X111.136 Y103.595 E9.81606
G1 X109.605 Y103.97 E9.88946
G1 X107.766 Y104.256 E9.97612
G1 X106.212 Y104.361 E10.04865
G1 X104.733 Y104.353 E10.11752
G1 X103.03 Y104.203 E10.19712
G1 X101.029 Y103.836 E10.29185
G1 X99.695 Y103.471 E10.35625
G1 X97.849 Y102.802 E10.44768
G1 X96.69 Y102.27 E10.50706
G1 X94.926 Y101.27 E10.60148
G1 X93.653 Y100.394 E10.67343
G1 X92.363 Y99.341 E10.75097
G1 X91.107 Y98.129 E10.83225
G1 X89.982 Y96.834 E10.91212
G1 X88.915 Y95.363 E10.99674
G1 X88.115 Y94.033 E11.06901
G1 X87.26 Y92.276 E11.16
G1 X86.656 Y90.697 E11.23872
G1 X86.191 Y89.091 E11.31657
G1 X85.919 Y87.79 E11.37846
G1 X85.669 Y85.684 E11.47722
G1 X85.625 Y84.365 E11.53867
G1 X85.732 Y82.333 E11.63342
G1 X85.933 Y80.899 E11.70084
G1 X86.325 Y79.158 E11.78394
G1 X86.789 Y77.663 E11.85683
G1 X87.462 Y76.009 E11.93998
G1 X88.131 Y74.688 E12.00893
G1 X89.267 Y72.866 E12.10891
G1 X90.052 Y71.823 E12.16969
G0 F9000 X90.372 Y72.064
G1 F1800 X91.651 Y70.634 E12.25903
G1 X92.694 Y69.649 E12.32583
G1 X94.214 Y68.439 E12.41629
G1 X95.261 Y67.74 E12.47491
G1 X97.104 Y66.726 E12.57286
G1 X98.425 Y66.149 E12.63999
G1 X100.184 Y65.545 E12.72659
G1 X101.349 Y65.247 E12.78258
G1 X103.446 Y64.893 E12.88161
G1 X104.496 Y64.804 E12.93067
G1 X106.509 Y64.798 E13.02441
G1 X107.776 Y64.895 E13.08358
G1 X110.093 Y65.289 E13.19302
G1 X111.205 Y65.585 E13.2466
G1 X113.004 Y66.221 E13.33545
G1 X114.674 Y66.989 E13.42104
G1 X115.898 Y67.684 E13.48658
G1 X117.471 Y68.764 E13.57543
G1 X118.559 Y69.653 E13.64085
G1 X119.944 Y70.995 E13.73065
G1 X120.622 Y71.78 E13.77895
G1 X121.651 Y70.634 E13.85067
G1 X122.694 Y69.649 E13.91747
G1 X124.214 Y68.439 E14.00793
G1 X125.261 Y67.74 E14.06655
G1 X127.104 Y66.726 E14.1645
G1 X128.425 Y66.149 E14.23163
G1 X130.184 Y65.545 E14.31823
G1 X131.349 Y65.247 E14.37422
G1 X133.446 Y64.893 E14.47325
G1 X134.496 Y64.804 E14.52231
G1 X136.099 Y64.786 E14.59696
G1 X137.746 Y64.895 E14.67382
G1 X140.093 Y65.289 E14.78464
G1 X141.205 Y65.585 E14.83822
G1 X143.004 Y66.221 E14.92707
G1 X144.674 Y66.989 E15.01266
G1 X145.898 Y67.684 E15.0782
G1 X147.471 Y68.764 E15.16705
G1 X148.559 Y69.653 E15.23247
G1 X149.944 Y70.993 E15.32221
G1 X150.928 Y72.131 E15.39226
G1 X152.055 Y73.695 E15.48202
G1 X152.858 Y75.04 E15.55497
G1 X153.502 Y76.347 E15.62281
G1 X154.198 Y78.126 E15.71176
G1 X154.667 Y79.74 E15.79003
G1 X154.939 Y81.041 E15.85192
G1 X155.181 Y83.078 E15.94743
G1 X155.225 Y84.398 E16.00893
G1 X155.122 Y86.362 E16.10051
G1 X154.927 Y87.763 E16.16638
G1 X154.543 Y89.473 E16.24798
G1 X154.079 Y90.968 E16.32087
G1 X153.431 Y92.56 E16.40091
G1 X152.762 Y93.881 E16.46986
G1 X151.663 Y95.643 E16.56656
G1 X150.878 Y96.686 E16.62734
G1 X149.599 Y98.116 E16.71668
G1 X148.531 Y99.123 E16.78503
G1 X148.217 Y99.374 E16.80374
G1 X148.559 Y99.653 E16.8243
G1 X149.944 Y100.993 E16.91403
G1 X150.928 Y102.131 E16.98408
G1 X152.055 Y103.695 E17.07385
G1 X152.858 Y105.04 E17.14679
G1 X153.502 Y106.347 E17.21464
G1 X154.198 Y108.126 E17.30359
G1 X154.667 Y109.74 E17.38185
G1 X154.939 Y111.041 E17.44374
G1 X155.181 Y113.077 E17.53921
G1 X155.225 Y114.563 E17.60844
G1 X155.145 Y116.168 E17.68327
G1 X154.927 Y117.763 E17.75823
G1 X154.543 Y119.473 E17.83983
G1 X154.079 Y120.968 E17.91272
G1 X153.431 Y122.56 E17.99276
G1 X152.762 Y123.881 E18.06171
G1 X151.663 Y125.643 E18.15841
G1 X150.878 Y126.686 E18.21919
G1 X149.599 Y128.116 E18.30853
G1 X148.556 Y129.101 E18.37533
G1 X147.036 Y130.311 E18.46579
G1 X145.989 Y131.01 E18.52441
G1 X144.15 Y132.024 E18.6222
G1 X142.952 Y132.553 E18.68318
G1 X141.047 Y133.205 E18.77693
G1 X139.517 Y133.58 E18.85029
G1 X137.755 Y133.857 E18.93334
G1 X136.325 Y133.958 E19.00009
G1 X134.743 Y133.953 E19.07376
G1 X133.102 Y133.81 E19.15046
G1 X131.135 Y133.45 E19.24357
G1 X129.801 Y133.085 E19.30797
G1 X128.016 Y132.438 E19.39638
G1 X126.857 Y131.906 E19.45576
G1 X125.153 Y130.94 E19.54697
G1 X123.88 Y130.064 E19.61892
G1 X122.641 Y129.053 E19.69339
G1 X121.385 Y127.841 E19.77466
G1 X120.306 Y126.599 E19.85127
G1 X119.258 Y125.156 E19.93431
G1 X118.475 Y123.858 E20.0049
G1 X117.634 Y122.133 E20.09426
G1 X117.03 Y120.554 E20.17298
G1 X116.583 Y119.009 E20.24787
G1 X116.311 Y117.708 E20.30976
G1 X116.069 Y115.671 E20.40528
G1 X116.025 Y114.352 E20.46673
G1 X116.128 Y112.388 E20.55831
G1 X116.323 Y110.987 E20.62418
G1 X116.707 Y109.277 E20.70578
G1 X117.171 Y107.782 E20.77867
G1 X117.819 Y106.19 E20.85871
G1 X118.488 Y104.869 E20.92766
G1 X119.587 Y103.107 E21.02436
G1 X120.372 Y102.064 E21.08514
G1 X121.628 Y100.658 E21.17293
G1 X122.744 Y99.606 E21.24434
G1 X123.034 Y99.374 E21.26164
G1 X122.641 Y99.052 E21.28529
G1 X121.312 Y97.763 E21.3715
G1 X120.627 Y96.97 E21.4203
G1 X119.599 Y98.116 E21.49198
G1 X118.556 Y99.101 E21.55878
G1 X117.036 Y100.311 E21.64925
G1 X115.989 Y101.01 E21.70787
G1 X114.15 Y102.024 E21.80566
G1 X112.983 Y102.541 E21.86509
G1 X111.041 Y103.206 E21.96067
G1 X109.51 Y103.581 E22.03407
G1 X107.739 Y103.857 E22.11753
G1 X106.214 Y103.961 E22.18871
G1 X104.735 Y103.953 E22.25757
G1 X103.102 Y103.81 E22.3339
G1 X101.135 Y103.45 E22.42702
G1 X99.801 Y103.085 E22.49142
G1 X98.016 Y102.438 E22.57983
G1 X96.857 Y101.906 E22.63921
G1 X95.153 Y100.94 E22.73042
G1 X93.88 Y100.064 E22.80237
G1 X92.641 Y99.053 E22.87683
G1 X91.385 Y97.841 E22.95811
G1 X90.306 Y96.599 E23.03472
G1 X89.258 Y95.156 E23.11776
G1 X88.475 Y93.858 E23.18835
G1 X87.634 Y92.133 E23.27771
G1 X87.03 Y90.554 E23.35643
G1 X86.583 Y89.009 E23.43132
G1 X86.311 Y87.708 E23.49321
G1 X86.069 Y85.671 E23.58873
G1 X86.025 Y84.352 E23.65018
G1 X86.128 Y82.388 E23.74176
G1 X86.323 Y80.987 E23.80762
G1 X86.707 Y79.277 E23.88923
G1 X87.171 Y77.782 E23.96212
G1 X87.819 Y76.19 E24.04216
G1 X88.488 Y74.869 E24.11111
G1 X89.587 Y73.107 E24.2078
G1 X90.372 Y72.064 E24.26859
G0 F9000 X90.692 Y72.305
G1 F1800 X91.926 Y70.925 E24.35479
G1 X92.969 Y69.94 E24.42159
G1 X94.436 Y68.772 E24.50891
G1 X95.483 Y68.073 E24.56753
G1 X97.264 Y67.092 E24.66221
G1 X98.555 Y66.527 E24.72782
G1 X100.283 Y65.933 E24.81291
G1 X101.448 Y65.635 E24.8689
G1 X103.48 Y65.292 E24.96486
G1 X104.53 Y65.203 E25.01393
G1 X106.478 Y65.197 E25.10464
G1 X107.745 Y65.294 E25.1638
G1 X109.99 Y65.676 E25.26984
G1 X111.102 Y65.972 E25.32343
G1 X112.87 Y66.598 E25.41076
G1 X114.476 Y67.337 E25.49308
G1 X115.7 Y68.032 E25.55862
G1 X117.218 Y69.074 E25.64436
G1 X118.306 Y69.963 E25.70978
G1 X119.641 Y71.256 E25.79632
G1 X120.617 Y72.386 E25.86585
G1 X121.926 Y70.925 E25.95719
G1 X122.969 Y69.94 E26.02399
G1 X124.436 Y68.772 E26.11131
G1 X125.483 Y68.073 E26.16992
G1 X127.264 Y67.092 E26.2646
G1 X128.555 Y66.527 E26.33022
G1 X130.283 Y65.933 E26.41531
G1 X131.448 Y65.635 E26.4713
G1 X133.48 Y65.292 E26.56726
G1 X134.53 Y65.203 E26.61633
G1 X136.103 Y65.186 E26.68958
G1 X137.719 Y65.294 E26.76499
G1 X139.99 Y65.676 E26.87222
G1 X141.102 Y65.972 E26.92581
G1 X142.87 Y66.598 E27.01314
G1 X144.476 Y67.337 E27.09546
G1 X145.7 Y68.032 E27.161
G1 X147.218 Y69.074 E27.24674
G1 X148.306 Y69.963 E27.31216
G1 X149.641 Y71.255 E27.39867
G1 X150.625 Y72.393 E27.46872
G1 X151.712 Y73.9 E27.55524
G1 X152.499 Y75.217 E27.62668
G1 X153.129 Y76.493 E27.69294
G1 X153.825 Y78.272 E27.7819
G1 X154.275 Y79.822 E27.85705
G1 X154.547 Y81.123 E27.91894
G1 X154.781 Y83.091 E28.01122
G1 X154.825 Y84.411 E28.07272
G1 X154.726 Y86.307 E28.16113
G1 X154.537 Y87.676 E28.22548
G1 X154.161 Y89.354 E28.30555
G1 X153.697 Y90.849 E28.37844
G1 X153.074 Y92.379 E28.45536
G1 X152.405 Y93.7 E28.52431
G1 X151.343 Y95.402 E28.61773
G1 X150.558 Y96.445 E28.67851
G1 X149.324 Y97.825 E28.76472
G1 X148.281 Y98.81 E28.83152
G1 X147.58 Y99.37 E28.8733
G1 X148.306 Y99.963 E28.91695
G1 X149.641 Y101.255 E29.00345
G1 X150.625 Y102.393 E29.07351
G1 X151.712 Y103.9 E29.16003
G1 X152.499 Y105.217 E29.23147
G1 X153.129 Y106.493 E29.29773
G1 X153.825 Y108.272 E29.38668
G1 X154.275 Y109.822 E29.46184
G1 X154.547 Y111.123 E29.52373
G1 X154.781 Y113.089 E29.61592
G1 X154.825 Y114.543 E29.68365
G1 X154.745 Y116.148 E29.75848
G1 X154.537 Y117.676 E29.83029
G1 X154.161 Y119.354 E29.91036
G1 X153.697 Y120.849 E29.98325
G1 X153.074 Y122.379 E30.06017
G1 X152.405 Y123.7 E30.12912
G1 X151.343 Y125.402 E30.22254
G1 X150.558 Y126.445 E30.28332
G1 X149.324 Y127.825 E30.36952
G1 X148.281 Y128.81 E30.43633
G1 X146.814 Y129.978 E30.52364
G1 X145.767 Y130.677 E30.58226
G1 X143.988 Y131.658 E30.67686
G1 X142.79 Y132.187 E30.73784
G1 X140.951 Y132.817 E30.82836
G1 X139.455 Y133.185 E30.90009
G1 X137.727 Y133.458 E30.98155
G1 X136.326 Y133.558 E31.04696
G1 X134.744 Y133.553 E31.12062
G1 X133.174 Y133.416 E31.194
G1 X131.241 Y133.064 E31.28549
G1 X129.907 Y132.699 E31.34989
G1 X128.183 Y132.074 E31.43528
G1 X127.024 Y131.542 E31.49466
G1 X125.38 Y130.61 E31.58266
G1 X124.107 Y129.734 E31.65462
G1 X122.919 Y128.765 E31.726
G1 X121.663 Y127.553 E31.80728
G1 X120.63 Y126.364 E31.88062
G1 X119.601 Y124.949 E31.96209
G1 X118.818 Y123.651 E32.03267
G1 X118.007 Y121.99 E32.11874
G1 X117.414 Y120.443 E32.19589
G1 X116.975 Y118.927 E32.26938
G1 X116.703 Y117.626 E32.33127
G1 X116.469 Y115.658 E32.42355
G1 X116.425 Y114.339 E32.485
G1 X116.524 Y112.443 E32.57341
G1 X116.713 Y111.074 E32.63776
G1 X117.089 Y109.396 E32.71783
G1 X117.553 Y107.901 E32.79072
G1 X118.176 Y106.371 E32.86765
G1 X118.845 Y105.05 E32.9366
G1 X119.907 Y103.348 E33.03001
G1 X120.692 Y102.305 E33.0908
G1 X121.926 Y100.925 E33.177
G1 X122.994 Y99.918 E33.24535
G1 X123.671 Y99.377 E33.2857
G1 X122.919 Y98.765 E33.33085
G1 X121.615 Y97.502 E33.41538
G1 X120.633 Y96.364 E33.48537
G1 X119.324 Y97.825 E33.57671
G1 X118.281 Y98.81 E33.64351
G1 X116.814 Y99.978 E33.73083
G1 X115.767 Y100.677 E33.78945
G1 X113.988 Y101.658 E33.88405
G1 X112.821 Y102.175 E33.94348
G1 X110.946 Y102.817 E34.03577
G1 X109.415 Y103.192 E34.10916
G1 X107.712 Y103.458 E34.18942
G1 X106.216 Y103.561 E34.25925
G1 X104.737 Y103.553 E34.32812
G1 X103.174 Y103.416 E34.40118
G1 X101.241 Y103.064 E34.49266
G1 X99.907 Y102.699 E34.55706
G1 X98.183 Y102.074 E34.64245
G1 X97.024 Y101.542 E34.70184
G1 X95.38 Y100.61 E34.78983
G1 X94.107 Y99.734 E34.86179
G1 X92.919 Y98.765 E34.93317
G1 X91.663 Y97.553 E35.01445
G1 X90.63 Y96.364 E35.08779
G1 X89.601 Y94.949 E35.16926
G1 X88.818 Y93.651 E35.23984
G1 X88.007 Y91.99 E35.32591
G1 X87.414 Y90.443 E35.40306
G1 X86.975 Y88.927 E35.47655
G1 X86.703 Y87.626 E35.53844
G1 X86.469 Y85.658 E35.63072
G1 X86.425 Y84.339 E35.69218
G1 X86.524 Y82.443 E35.78058
G1 X86.713 Y81.074 E35.84493
G1 X87.089 Y79.396 E35.92501
G1 X87.553 Y77.901 E35.99789
G1 X88.176 Y76.371 E36.07482
G1 X88.845 Y75.05 E36.14377
G1 X89.907 Y73.348 E36.23718
G1 X90.692 Y72.305 E36.29797
G0 F9000 X91.012 Y72.546
G1 F1800 X92.201 Y71.216 E36.38104
G1 X93.244 Y70.231 E36.44784
G1 X94.658 Y69.105 E36.53201
G1 X95.705 Y68.406 E36.59063
G1 X97.425 Y67.458 E36.68207
G1 X98.685 Y66.905 E36.74615
G1 X100.382 Y66.321 E36.82972
G1 X101.547 Y66.023 E36.88571
G1 X103.514 Y65.691 E36.9786
G1 X104.564 Y65.602 E37.02766
G1 X106.447 Y65.596 E37.11535
G1 X107.714 Y65.693 E37.17451
G1 X109.887 Y66.063 E37.27715
G1 X110.999 Y66.359 E37.33074
G1 X112.736 Y66.975 E37.41655
G1 X114.278 Y67.685 E37.4956
G1 X115.502 Y68.38 E37.56114
G1 X116.965 Y69.384 E37.64377
G1 X118.053 Y70.273 E37.70919
G1 X119.338 Y71.517 E37.79247
G1 X120.343 Y72.682 E37.86411
G1 X120.621 Y73.066 E37.88619
G1 X121.034 Y72.52 E37.91807
G1 X122.201 Y71.216 E37.99955
G1 X123.244 Y70.231 E38.06635
G1 X124.658 Y69.105 E38.15052
G1 X125.705 Y68.406 E38.20914
